X: 24
T: The Seven Step
R: barndance
M: 4/4
L: 1/8
K: Gmaj
"intro"D[B,G] [B,G][B,G] | [A,/F/][B,/G/][C/A/][A,/F/] [B,G][DB] | [Fd]>[Ec] [DB][CA] | [B,2G2] z2 |]
"dance"D[B,G] .[BG][B,G] | [A,/F/][B,/G/][C/A/][A,/F/] [B,2G2] | D[GB] [GB][GB] | [F/A/][G/B/][A/c/][F/A/] [G2B2] ||
|: [Bd][Bd] [c2e2] | [Ac][Ac] [B2d2] | [GB][GB] [Ac][Ac] |[1 [FA][FA] [G2B2] :|[2 [CA][CA] [B,2G2] |]


Tune 1307	Setting 18822

